packages/core/src/svgs/wallets/mono/soul.svg

<svg width="24" height="24" viewBox="0 0 24 24" fill="none" xmlns="http://www.w3.org/2000/svg">
<path d="M18.4547 8.49871H5.6064C5.59493 8.49871 5.58362 8.49871 5.57215 8.49871C3.61467 8.49871 2.02783 10.0676 2.02783 12.0028C2.02783 13.9381 3.61467 15.5069 5.57215 15.5069C5.58362 15.5069 5.5951 15.5066 5.6064 15.5064L18.4547 15.5069C20.4122 15.5069 21.999 13.9381 21.999 12.0028C21.999 10.0676 20.4122 8.49871 18.4547 8.49871Z" fill="#F9F9F9"/>
<path d="M9.49547 3.03601L3.04016 9.46556C1.65328 10.8469 1.65328 13.0865 3.04016 14.4678C4.42704 15.8491 6.67561 15.8491 8.0625 14.4678L14.5179 8.03827C15.9047 6.65693 15.9047 4.41734 14.5179 3.03601C13.131 1.65466 10.8824 1.65466 9.49547 3.03601Z" fill="#F9F9F9"/>
<path d="M15.9375 9.53214L9.48219 15.9617C8.09531 17.343 8.09531 19.5826 9.48219 20.964C10.869 22.3453 13.1176 22.3453 14.5045 20.964L20.9599 14.5345C22.3467 13.1531 22.3467 10.9135 20.9599 9.53214C19.573 8.15083 17.3244 8.15083 15.9375 9.53214Z" fill="#F9F9F9"/>
</svg>

<svg xmlns="http://www.w3.org/2000/svg" width="24" height="24" fill="none" viewBox="0 0 24 24">
    <path fill="#F9F9F9" d="M18.455 8.499H5.572c-1.957 0-3.544 1.569-3.544 3.504s1.587 3.504 3.544 3.504h12.883c1.957 0 3.544-1.569 3.544-3.504s-1.587-3.504-3.544-3.504"/>
    <path fill="#F9F9F9" d="M9.495 3.036 3.04 9.466a3.527 3.527 0 0 0 0 5.002 3.56 3.56 0 0 0 5.023 0l6.455-6.43a3.527 3.527 0 0 0 0-5.002 3.56 3.56 0 0 0-5.023 0m6.443 6.496-6.456 6.43a3.527 3.527 0 0 0 0 5.002 3.56 3.56 0 0 0 5.023 0l6.455-6.43a3.527 3.527 0 0 0 0-5.002 3.56 3.56 0 0 0-5.023 0"/>
</svg>
